X:80
M:2/4
L:1/8
K:Gmin
|: B/c/ | dced | cBdc | BA^FG | A/G/^F/=E/ DB/c/ | dced | ^fdge | dcBA | G3 :|

